flaticon/music/oboe.svg

<svg xmlns="http://www.w3.org/2000/svg" width="32" height="32" viewBox="0 0 24 24">
    <path d="M 23.15625 1.007812 L 22.996094 0.847656 C 22.449219 0.300781 21.722656 0 20.953125 0 C 20.507812 0 20.0625 0.105469 19.660156 0.304688 L 19.351562 0.460938 C 18.765625 0.753906 18.292969 1.242188 18.019531 1.835938 L 16.34375 5.46875 L 15.722656 6.089844 L 15.402344 5.769531 C 15.328125 5.695312 15.222656 5.652344 15.117188 5.652344 L 14.308594 5.652344 C 14.203125 5.652344 14.097656 5.695312 14.023438 5.769531 L 13.621094 6.175781 C 13.542969 6.25 13.5 6.351562 13.5 6.460938 L 13.5 7.269531 C 13.5 7.375 13.542969 7.476562 13.621094 7.554688 L 13.933594 7.867188 L 13.695312 8.101562 L 13.382812 7.789062 C 13.308594 7.714844 13.207031 7.671875 13.097656 7.671875 L 12.289062 7.671875 C 12.183594 7.671875 12.082031 7.714844 12.003906 7.789062 L 11.601562 8.195312 C 11.523438 8.269531 11.484375 8.371094 11.484375 8.480469 L 11.484375 9.285156 C 11.484375 9.394531 11.523438 9.496094 11.601562 9.574219 L 11.90625 9.878906 L 11.667969 10.113281 L 11.363281 9.808594 C 11.289062 9.734375 11.1875 9.691406 11.078125 9.691406 L 10.273438 9.691406 C 10.164062 9.691406 10.0625 9.734375 9.984375 9.808594 L 9.582031 10.210938 C 9.507812 10.289062 9.464844 10.390625 9.464844 10.5 L 9.464844 11.304688 C 9.464844 11.414062 9.507812 11.515625 9.582031 11.589844 L 9.882812 11.890625 L 9.644531 12.125 L 9.34375 11.828125 C 9.269531 11.753906 9.167969 11.710938 9.058594 11.710938 L 8.253906 11.710938 C 8.144531 11.710938 8.042969 11.75 7.96875 11.828125 L 7.5625 12.230469 C 7.488281 12.308594 7.445312 12.410156 7.445312 12.515625 L 7.445312 13.324219 C 7.445312 13.433594 7.488281 13.535156 7.5625 13.609375 L 7.855469 13.902344 L 7.617188 14.136719 L 7.328125 13.847656 C 7.25 13.769531 7.148438 13.726562 7.042969 13.726562 L 6.234375 13.726562 C 6.125 13.726562 6.023438 13.769531 5.949219 13.847656 L 5.542969 14.25 C 5.46875 14.328125 5.425781 14.429688 5.425781 14.535156 L 5.425781 15.34375 C 5.425781 15.449219 5.46875 15.554688 5.542969 15.628906 L 5.832031 15.914062 L 5.59375 16.152344 L 5.308594 15.867188 C 5.234375 15.789062 5.128906 15.746094 5.023438 15.746094 L 4.214844 15.746094 C 4.109375 15.746094 4.003906 15.789062 3.929688 15.867188 L 3.527344 16.269531 C 3.449219 16.34375 3.40625 16.449219 3.40625 16.554688 L 3.40625 17.363281 C 3.40625 17.46875 3.449219 17.574219 3.527344 17.648438 L 3.804688 17.925781 L 2.140625 19.582031 L 2.085938 19.527344 C 1.691406 19.140625 1.054688 19.140625 0.660156 19.53125 C 0.46875 19.722656 0.367188 19.976562 0.367188 20.25 C 0.367188 20.519531 0.472656 20.773438 0.664062 20.964844 L 1.140625 21.433594 L 0.296875 22.277344 C 0.105469 22.46875 0 22.722656 0 22.992188 C 0 23.261719 0.105469 23.515625 0.296875 23.703125 C 0.492188 23.902344 0.75 24 1.007812 24 C 1.269531 24 1.527344 23.902344 1.722656 23.703125 L 2.574219 22.851562 L 3.03125 23.304688 C 3.226562 23.496094 3.484375 23.59375 3.738281 23.59375 C 4 23.59375 4.257812 23.496094 4.453125 23.300781 C 4.644531 23.109375 4.75 22.855469 4.75 22.582031 C 4.75 22.3125 4.640625 22.058594 4.449219 21.867188 L 4.433594 21.855469 L 7.800781 18.488281 L 8.46875 19.152344 C 8.546875 19.234375 8.652344 19.273438 8.753906 19.273438 C 8.859375 19.273438 8.960938 19.234375 9.039062 19.152344 L 10.800781 17.394531 C 10.800781 17.394531 10.800781 17.394531 10.800781 17.390625 L 14.230469 13.964844 C 14.386719 13.808594 14.386719 13.554688 14.230469 13.394531 L 13.5625 12.726562 L 18.632812 7.65625 L 22.183594 5.980469 C 22.765625 5.707031 23.246094 5.238281 23.535156 4.660156 L 23.695312 4.339844 C 23.894531 3.941406 24 3.492188 24 3.046875 C 24 2.277344 23.699219 1.550781 23.15625 1.007812 Z M 14.308594 6.628906 L 14.476562 6.460938 L 14.949219 6.460938 L 15.117188 6.628906 L 15.117188 7.101562 L 14.949219 7.269531 L 14.476562 7.269531 L 14.308594 7.101562 Z M 12.289062 8.648438 L 12.457031 8.480469 L 12.929688 8.480469 L 13.097656 8.644531 L 13.097656 9.121094 L 12.929688 9.285156 L 12.457031 9.285156 L 12.289062 9.121094 Z M 10.273438 10.664062 L 10.4375 10.5 L 10.914062 10.5 L 11.078125 10.664062 L 11.078125 11.136719 L 10.910156 11.304688 L 10.4375 11.304688 L 10.273438 11.136719 Z M 8.253906 12.683594 L 8.421875 12.515625 L 8.894531 12.515625 L 9.0625 12.683594 L 9.0625 13.15625 L 8.894531 13.324219 L 8.421875 13.324219 L 8.253906 13.15625 Z M 6.234375 14.703125 L 6.402344 14.535156 L 6.875 14.535156 L 7.042969 14.703125 L 7.042969 15.175781 L 6.875 15.34375 L 6.402344 15.34375 L 6.234375 15.175781 Z M 4.214844 16.722656 L 4.382812 16.554688 L 4.855469 16.554688 L 5.023438 16.722656 L 5.023438 17.195312 L 4.855469 17.363281 L 4.382812 17.363281 L 4.214844 17.195312 Z M 2 22.285156 L 1.152344 23.132812 C 1.074219 23.210938 0.945312 23.210938 0.867188 23.132812 C 0.789062 23.054688 0.789062 22.925781 0.867188 22.847656 L 1.714844 22 Z M 3.882812 22.726562 C 3.804688 22.804688 3.675781 22.808594 3.597656 22.730469 L 2.859375 21.996094 L 1.996094 21.144531 L 1.234375 20.390625 C 1.179688 20.339844 1.171875 20.277344 1.171875 20.246094 C 1.171875 20.214844 1.179688 20.15625 1.234375 20.101562 C 1.273438 20.0625 1.324219 20.042969 1.375 20.042969 C 1.425781 20.042969 1.476562 20.0625 1.519531 20.101562 L 3.882812 22.441406 C 3.933594 22.492188 3.941406 22.554688 3.941406 22.585938 C 3.941406 22.617188 3.933594 22.675781 3.882812 22.726562 Z M 8.753906 18.296875 L 8.375 17.914062 L 9.5625 16.722656 L 9.945312 17.105469 Z M 11.609375 15.441406 L 10.515625 16.535156 L 10.132812 16.152344 L 11.226562 15.058594 Z M 13.371094 13.679688 L 12.179688 14.871094 L 11.800781 14.488281 L 12.992188 13.296875 Z M 22.972656 3.976562 L 22.8125 4.300781 C 22.605469 4.714844 22.257812 5.054688 21.839844 5.25 L 18.226562 6.953125 C 18.183594 6.972656 18.144531 7 18.113281 7.035156 L 12.992188 12.15625 L 12.515625 11.679688 C 12.359375 11.523438 12.101562 11.523438 11.945312 11.679688 C 11.785156 11.839844 11.785156 12.09375 11.945312 12.253906 L 12.417969 12.726562 L 11.226562 13.917969 L 10.753906 13.441406 C 10.59375 13.285156 10.339844 13.285156 10.183594 13.441406 C 10.023438 13.601562 10.023438 13.855469 10.183594 14.015625 L 10.65625 14.488281 L 9.5625 15.582031 L 9.089844 15.105469 C 8.929688 14.949219 8.675781 14.949219 8.519531 15.105469 C 8.359375 15.265625 8.359375 15.519531 8.519531 15.679688 L 8.992188 16.152344 L 7.800781 17.34375 L 7.328125 16.871094 C 7.167969 16.710938 6.914062 16.710938 6.757812 16.871094 C 6.597656 17.027344 6.597656 17.28125 6.757812 17.441406 L 7.230469 17.914062 L 3.859375 21.285156 L 3.234375 20.667969 L 2.714844 20.152344 L 4.707031 18.167969 L 5.023438 18.167969 C 5.128906 18.167969 5.234375 18.128906 5.308594 18.050781 L 5.710938 17.648438 C 5.789062 17.570312 5.832031 17.46875 5.832031 17.363281 L 5.832031 17.054688 L 6.738281 16.152344 L 7.042969 16.152344 C 7.148438 16.152344 7.25 16.109375 7.328125 16.03125 L 7.730469 15.628906 C 7.804688 15.554688 7.847656 15.449219 7.847656 15.34375 L 7.847656 15.046875 L 8.769531 14.132812 L 9.0625 14.132812 C 9.167969 14.132812 9.269531 14.089844 9.347656 14.015625 L 9.75 13.609375 C 9.824219 13.535156 9.867188 13.433594 9.867188 13.324219 L 9.867188 13.042969 L 10.800781 12.113281 L 11.078125 12.113281 C 11.1875 12.113281 11.289062 12.070312 11.363281 11.996094 L 11.769531 11.589844 C 11.84375 11.515625 11.886719 11.414062 11.886719 11.304688 L 11.886719 11.035156 L 12.835938 10.09375 L 13.097656 10.09375 C 13.207031 10.09375 13.308594 10.050781 13.382812 9.976562 L 13.789062 9.574219 C 13.863281 9.496094 13.90625 9.394531 13.90625 9.285156 L 13.90625 9.03125 L 14.867188 8.074219 L 15.117188 8.074219 C 15.222656 8.074219 15.328125 8.03125 15.402344 7.957031 L 15.804688 7.554688 C 15.882812 7.476562 15.925781 7.375 15.925781 7.269531 L 15.925781 7.023438 L 16.964844 5.988281 C 17 5.957031 17.027344 5.914062 17.046875 5.871094 L 18.753906 2.171875 C 18.949219 1.742188 19.289062 1.394531 19.710938 1.183594 L 20.023438 1.027344 C 20.308594 0.882812 20.632812 0.808594 20.953125 0.808594 C 21.507812 0.808594 22.03125 1.023438 22.421875 1.417969 L 22.582031 1.578125 C 22.976562 1.96875 23.191406 2.492188 23.191406 3.046875 C 23.191406 3.367188 23.117188 3.691406 22.972656 3.976562 Z M 22.972656 3.976562"/>
</svg>

<svg xmlns="http://www.w3.org/2000/svg" width="32" height="32" viewBox="0 0 24 24">
    <path d="M23.156 1.008l-.16-.16A2.873 2.873 0 0 0 20.953 0c-.445 0-.89.105-1.293.305l-.308.156a2.898 2.898 0 0 0-1.332 1.375l-1.676 3.633-.621.62-.32-.32a.409.409 0 0 0-.286-.117h-.808a.409.409 0 0 0-.286.118l-.402.406a.39.39 0 0 0-.121.285v.809c0 .105.043.207.121.285l.313.312-.239.235-.312-.313a.402.402 0 0 0-.285-.117h-.809a.416.416 0 0 0-.285.117l-.402.406a.386.386 0 0 0-.118.285v.805c0 .11.04.211.118.29l.304.304-.238.234-.305-.304a.402.402 0 0 0-.285-.118h-.805c-.109 0-.21.043-.289.118l-.402.402a.418.418 0 0 0-.117.289v.805c0 .11.043.21.117.285l.3.3-.237.235-.301-.297a.402.402 0 0 0-.285-.117h-.805c-.11 0-.211.039-.285.117l-.407.402a.416.416 0 0 0-.117.286v.808c0 .11.043.211.117.285l.293.293-.238.235-.289-.29a.403.403 0 0 0-.285-.12h-.809a.39.39 0 0 0-.285.12l-.406.403a.416.416 0 0 0-.117.285v.809c0 .105.043.21.117.285l.289.285-.238.238-.285-.285a.396.396 0 0 0-.286-.12h-.808a.396.396 0 0 0-.285.12l-.403.403a.396.396 0 0 0-.12.285v.808c0 .106.042.211.12.285l.278.278-1.664 1.656-.055-.055a1.017 1.017 0 0 0-1.426.004 1.003 1.003 0 0 0-.293.719c0 .27.106.523.297.715l.477.469-.844.843a1.005 1.005 0 0 0 0 1.426.99.99 0 0 0 .71.297c.263 0 .52-.098.716-.297l.851-.851.457.453a1.013 1.013 0 0 0 1.719-.723c0-.27-.11-.523-.3-.715l-.016-.012L7.8 18.488l.668.664a.394.394 0 0 0 .57 0l1.762-1.757v-.004l3.43-3.426a.406.406 0 0 0 0-.57l-.668-.668 5.07-5.07 3.55-1.677a2.895 2.895 0 0 0 1.352-1.32l.16-.32c.2-.399.305-.848.305-1.293 0-.77-.3-1.496-.844-2.04zm-8.847 5.62l.168-.167h.472l.168.168v.473l-.168.168h-.472l-.168-.168zm-2.02 2.02l.168-.168h.473l.168.165v.476l-.168.164h-.473l-.168-.164zm-2.016 2.016l.165-.164h.476l.164.164v.473l-.168.168h-.473l-.164-.168zm-2.02 2.02l.169-.168h.473l.168.168v.472l-.168.168h-.473l-.168-.168zm-2.019 2.02l.168-.169h.473l.168.168v.473l-.168.168h-.473l-.168-.168zm-2.02 2.019l.169-.168h.472l.168.168v.472l-.168.168h-.472l-.168-.168zM2 22.285l-.848.848a.203.203 0 0 1-.285 0 .203.203 0 0 1 0-.285L1.715 22zm1.883.442a.203.203 0 0 1-.285.003l-.739-.734-.863-.851-.762-.754a.196.196 0 0 1-.062-.145c0-.031.008-.09.062-.144.04-.04.09-.059.141-.059.05 0 .102.02.145.059l2.363 2.34c.05.05.058.113.058.144 0 .031-.007.09-.058.14zm4.87-4.43l-.378-.383 1.188-1.191.382.382zm2.856-2.856l-1.093 1.094-.383-.383 1.094-1.093zm1.762-1.761L12.18 14.87l-.38-.383 1.192-1.191zm9.602-9.703l-.16.324a2.083 2.083 0 0 1-.973.949l-3.613 1.703a.338.338 0 0 0-.114.082l-5.12 5.121-.477-.476a.406.406 0 0 0-.57.574l.472.473-1.191 1.191-.473-.477a.406.406 0 0 0-.57.575l.472.472-1.094 1.094-.472-.477a.406.406 0 0 0-.57.575l.472.472-1.191 1.192-.473-.473a.399.399 0 0 0-.57 0 .399.399 0 0 0 0 .57l.472.473-3.37 3.371-.626-.617-.52-.516 1.993-1.984h.316c.106 0 .211-.04.286-.117l.402-.403a.403.403 0 0 0 .121-.285v-.308l.906-.903h.305a.403.403 0 0 0 .285-.12l.402-.403a.409.409 0 0 0 .118-.285v-.297l.922-.914h.293a.416.416 0 0 0 .285-.117l.402-.407a.402.402 0 0 0 .117-.285v-.281l.934-.93h.277c.11 0 .211-.043.285-.117l.407-.406a.402.402 0 0 0 .117-.285v-.27l.949-.941h.262c.109 0 .21-.043.285-.117l.406-.403a.418.418 0 0 0 .117-.289v-.254l.961-.957h.25c.106 0 .211-.043.285-.117l.403-.402a.403.403 0 0 0 .12-.285v-.247l1.04-1.035a.353.353 0 0 0 .082-.117l1.707-3.7c.195-.429.535-.776.957-.987l.312-.157c.286-.144.61-.218.93-.218.555 0 1.078.214 1.469.609l.16.16c.395.39.61.914.61 1.469 0 .32-.075.644-.22.93zm0 0"/>
</svg>
